svgs/thin/truck-monster.svg

<svg xmlns="http://www.w3.org/2000/svg" viewBox="0 0 640 512"><!--! Font Awesome Pro 6.0.0-alpha3 by @fontawesome - https://fontawesome.com License - https://fontawesome.com/license (Commercial License) --><path d="M160 304c-35.35 0-64 28.65-64 64c0 35.35 28.65 64 64 64s64-28.65 64-64C224 332.7 195.3 304 160 304zM160 416c-26.47 0-48-21.53-48-48S133.5 320 160 320s48 21.53 48 48S186.5 416 160 416zM598.4 320.6c-.373-.9375-.7598-1.869-1.158-2.799c3.498-5.262 5.332-11.34 5.332-17.72c0-8.588-3.33-16.64-9.375-22.69l-22.62-22.62c-6.045-6.045-14.1-9.373-22.69-9.373c-6.424 0-12.55 1.863-17.76 5.334c-.9102-.3887-1.824-.7656-2.746-1.133C524.4 235 511.5 224 496 224h-32c-15.46 0-28.39 11.02-31.36 25.61c-.9375 .373-1.869 .7578-2.799 1.156c-5.26-3.496-11.34-5.33-17.72-5.33c-8.586 0-16.64 3.328-22.69 9.373l-22.62 22.62c-6.043 6.045-9.373 14.08-9.373 22.63c0 6.414 1.875 12.54 5.365 17.75c-.3984 .9336-.7871 1.873-1.162 2.82C347 323.6 336 336.5 336 352v32c0 15.46 11.02 28.39 25.61 31.36c.377 .9434 .7656 1.883 1.166 2.818c-8.238 12.53-6.852 29.38 4.033 40.26l22.62 22.62c6.047 6.045 14.1 9.375 22.69 9.375c6.369 0 12.45-1.832 17.63-5.244c.957 .4102 1.92 .8086 2.887 1.195C435.6 500.1 448.5 512 464 512h32c15.46 0 28.39-11.02 31.36-25.61c.9824-.3926 1.963-.7988 2.938-1.217c5.125 3.398 11.24 5.266 17.64 5.266c8.547 0 16.58-3.33 22.63-9.375l22.62-22.62c10.94-10.94 12.29-27.89 4.043-40.31c.3926-.9121 .7754-1.834 1.15-2.764C612.1 412.4 624 399.5 624 384v-32C624 336.5 612.1 323.6 598.4 320.6zM608 384c0 8.875-7.125 16-16 16h-5.125c-2.25 7.25-5.125 14.25-8.75 20.88l3.75 3.625c6.25 6.25 6.25 16.38 0 22.62l-22.62 22.62c-3.125 3.125-7.219 4.688-11.31 4.688s-8.188-1.562-11.31-4.688l-3.75-3.625C526.3 469.8 519.4 472.6 512 474.8V480c0 8.875-7.125 16-16 16h-32c-8.875 0-16-7.125-16-16v-5.25c-7.375-2.125-14.25-5-20.88-8.625l-3.625 3.625c-3.125 3.125-7.25 4.688-11.38 4.688s-8.25-1.562-11.38-4.688l-22.62-22.62c-6.25-6.25-6.25-16.38 0-22.62l3.75-3.625c-3.625-6.625-6.5-13.5-8.625-20.88H368c-8.875 0-16-7.125-16-16v-32c0-8.875 7.125-16 16-16h5.25c2.125-7.25 5-14.25 8.625-20.88l-3.75-3.75c-6.25-6.25-6.25-16.38 0-22.62l22.62-22.62C403.9 263 408 261.4 412.1 261.4S420.4 263 423.5 266.1l3.625 3.75C433.8 266.3 440.6 263.4 448 261.3V256c0-8.875 7.125-16 16-16h32C504.9 240 512 247.1 512 256v5.25c7.25 2.125 14.25 5 20.88 8.625l3.625-3.75c3.125-3.125 7.25-4.688 11.38-4.688s8.25 1.562 11.38 4.688l22.62 22.62c6.25 6.25 6.25 16.5 0 22.75l-3.75 3.625c3.625 6.625 6.5 13.5 8.625 20.88H592c8.875 0 16 7.125 16 16V384zM278.4 320.6C278 319.7 277.6 318.8 277.2 317.8c3.498-5.262 5.332-11.34 5.332-17.72c0-8.588-3.33-16.64-9.375-22.69L250.6 254.8C244.5 248.8 236.5 245.4 227.9 245.4c-6.424 0-12.55 1.863-17.76 5.334c-.9102-.3887-1.824-.7656-2.746-1.133C204.4 235 191.5 224 176 224h-32C128.5 224 115.6 235 112.6 249.6C111.7 249.1 110.8 250.4 109.8 250.8C104.6 247.3 98.5 245.4 92.13 245.4c-8.586 0-16.64 3.328-22.69 9.373L46.81 277.4C40.77 283.5 37.44 291.5 37.44 300.1c0 6.414 1.875 12.54 5.365 17.75c-.3984 .9336-.7871 1.873-1.162 2.82C27.03 323.6 16 336.5 16 352v32c0 15.46 11.02 28.39 25.61 31.36c.377 .9434 .7656 1.883 1.166 2.818c-8.238 12.53-6.852 29.38 4.033 40.26l22.62 22.62c6.047 6.045 14.1 9.375 22.69 9.375c6.369 0 12.45-1.832 17.63-5.244c.957 .4102 1.92 .8086 2.887 1.195C115.6 500.1 128.5 512 144 512h32c15.46 0 28.39-11.02 31.36-25.61c.9824-.3926 1.963-.7988 2.938-1.217c5.125 3.398 11.24 5.266 17.64 5.266c8.547 0 16.58-3.33 22.63-9.375l22.62-22.62c10.94-10.94 12.29-27.89 4.043-40.31c.3926-.9121 .7754-1.834 1.15-2.764C292.1 412.4 304 399.5 304 384v-32C304 336.5 292.1 323.6 278.4 320.6zM288 384c0 8.875-7.125 16-16 16H266.9c-2.25 7.25-5.125 14.25-8.75 20.88l3.75 3.625c6.25 6.25 6.25 16.38 0 22.62l-22.62 22.62c-3.125 3.125-7.219 4.688-11.31 4.688s-8.188-1.562-11.31-4.688l-3.75-3.625C206.3 469.8 199.4 472.6 192 474.8V480c0 8.875-7.125 16-16 16h-32C135.1 496 128 488.9 128 480v-5.25c-7.375-2.125-14.25-5-20.88-8.625L103.5 469.8c-3.125 3.125-7.25 4.688-11.38 4.688s-8.25-1.562-11.38-4.688l-22.62-22.62c-6.25-6.25-6.25-16.38 0-22.62l3.75-3.625C58.25 414.3 55.38 407.4 53.25 400H48C39.13 400 32 392.9 32 384v-32c0-8.875 7.125-16 16-16h5.25c2.125-7.25 5-14.25 8.625-20.88L58.13 311.4c-6.25-6.25-6.25-16.38 0-22.62l22.62-22.62C83.88 263 88 261.4 92.13 261.4S100.4 263 103.5 266.1l3.625 3.75C113.8 266.3 120.6 263.4 128 261.3V256c0-8.875 7.125-16 16-16h32C184.9 240 192 247.1 192 256v5.25c7.25 2.125 14.25 5 20.88 8.625L216.5 266.1C219.6 263 223.8 261.4 227.9 261.4S236.1 263 239.3 266.1l22.62 22.62c6.25 6.25 6.25 16.5 0 22.75L258.1 315.1C261.8 321.8 264.6 328.6 266.8 336H272C280.9 336 288 343.1 288 352V384zM560 128h-57.63l-83.12-104C407.1 8.832 388.7 0 369.3 0H256C238.4 0 224 14.4 224 32v96H80c-35.35 0-64 28.65-64 64v56C16 252.4 19.58 256 24 256S32 252.4 32 248V192c0-26.51 21.49-48 48-48h480C586.5 144 608 165.5 608 192v56C608 252.4 611.6 256 616 256s8-3.582 8-8V192C624 156.8 595.2 128 560 128zM240 128V32c0-8.838 7.164-16 16-16h113.3c14.55 0 28.32 6.619 37.41 17.99L481.9 128H240zM480 304c-35.35 0-64 28.65-64 64c0 35.35 28.65 64 64 64s64-28.65 64-64C544 332.7 515.3 304 480 304zM480 416c-26.47 0-48-21.53-48-48S453.5 320 480 320s48 21.53 48 48S506.5 416 480 416z"/></svg>

<svg xmlns="http://www.w3.org/2000/svg" viewBox="0 0 640 512"><!-- Font Awesome Pro 6.0.0-alpha2 by @fontawesome - https://fontawesome.com License - https://fontawesome.com/license (Commercial License) --><path d="M160 304C124.654 304 96 332.652 96 368C96 403.346 124.654 432 160 432S224 403.346 224 368C224 332.652 195.346 304 160 304ZM160 416C133.533 416 112 394.467 112 368S133.533 320 160 320S208 341.533 208 368S186.467 416 160 416ZM598.389 320.641C598.016 319.703 597.629 318.771 597.23 317.842C600.729 312.58 602.563 306.498 602.563 300.125C602.563 291.537 599.232 283.48 593.188 277.436L570.564 254.811C564.52 248.766 556.461 245.438 547.875 245.438C541.451 245.438 535.322 247.301 530.111 250.771C529.201 250.383 528.287 250.006 527.365 249.639C524.408 235.031 511.469 224 496 224H464C448.543 224 435.609 235.018 432.641 249.611C431.703 249.984 430.771 250.369 429.842 250.768C424.582 247.271 418.498 245.438 412.125 245.438C403.539 245.438 395.48 248.766 389.436 254.811L366.811 277.436C360.768 283.48 357.438 291.516 357.438 300.062C357.438 306.477 359.313 312.602 362.803 317.814C362.404 318.748 362.016 319.687 361.641 320.635C347.031 323.592 336 336.531 336 352V384C336 399.457 347.018 412.391 361.611 415.359C361.988 416.303 362.377 417.242 362.777 418.178C354.539 430.709 355.926 447.553 366.811 458.438L389.436 481.062C395.482 487.107 403.539 490.438 412.125 490.438C418.494 490.438 424.572 488.605 429.754 485.193C430.711 485.604 431.674 486.002 432.641 486.389C435.609 500.982 448.543 512 464 512H496C511.457 512 524.391 500.982 527.359 486.389C528.342 485.996 529.322 485.59 530.297 485.172C535.422 488.57 541.537 490.438 547.938 490.438C556.484 490.438 564.52 487.107 570.564 481.062L593.189 458.438C604.127 447.5 605.475 430.545 597.232 418.123C597.625 417.211 598.008 416.289 598.383 415.359C612.979 412.395 624 399.459 624 384V352C624 336.543 612.982 323.609 598.389 320.641ZM608 384C608 392.875 600.875 400 592 400H586.875C584.625 407.25 581.75 414.25 578.125 420.875L581.875 424.5C588.125 430.75 588.125 440.875 581.875 447.125L559.25 469.75C556.125 472.875 552.031 474.437 547.938 474.437S539.75 472.875 536.625 469.75L532.875 466.125C526.25 469.75 519.375 472.625 512 474.75V480C512 488.875 504.875 496 496 496H464C455.125 496 448 488.875 448 480V474.75C440.625 472.625 433.75 469.75 427.125 466.125L423.5 469.75C420.375 472.875 416.25 474.438 412.125 474.438S403.875 472.875 400.75 469.75L378.125 447.125C371.875 440.875 371.875 430.75 378.125 424.5L381.875 420.875C378.25 414.25 375.375 407.375 373.25 400H368C359.125 400 352 392.875 352 384V352C352 343.125 359.125 336 368 336H373.25C375.375 328.75 378.25 321.75 381.875 315.125L378.125 311.375C371.875 305.125 371.875 295 378.125 288.75L400.75 266.125C403.875 263 408 261.438 412.125 261.438S420.375 263 423.5 266.125L427.125 269.875C433.75 266.25 440.625 263.375 448 261.25V256C448 247.125 455.125 240 464 240H496C504.875 240 512 247.125 512 256V261.25C519.25 263.375 526.25 266.25 532.875 269.875L536.5 266.125C539.625 263 543.75 261.437 547.875 261.437S556.125 263 559.25 266.125L581.875 288.75C588.125 295 588.125 305.25 581.875 311.5L578.125 315.125C581.75 321.75 584.625 328.625 586.75 336H592C600.875 336 608 343.125 608 352V384ZM278.389 320.641C278.016 319.703 277.629 318.771 277.23 317.842C280.729 312.58 282.562 306.498 282.562 300.125C282.562 291.537 279.232 283.48 273.187 277.436L250.564 254.811C244.52 248.766 236.461 245.438 227.875 245.438C221.451 245.438 215.322 247.301 210.111 250.771C209.201 250.383 208.287 250.006 207.365 249.639C204.408 235.031 191.469 224 176 224H144C128.543 224 115.609 235.018 112.641 249.611C111.703 249.984 110.771 250.369 109.842 250.768C104.582 247.271 98.498 245.438 92.125 245.438C83.539 245.438 75.48 248.766 69.436 254.811L46.811 277.436C40.768 283.48 37.438 291.516 37.438 300.062C37.438 306.477 39.313 312.602 42.803 317.814C42.404 318.748 42.016 319.687 41.641 320.635C27.031 323.592 16 336.531 16 352V384C16 399.457 27.018 412.391 41.611 415.359C41.988 416.303 42.377 417.242 42.777 418.178C34.539 430.709 35.926 447.553 46.811 458.438L69.436 481.062C75.482 487.107 83.539 490.438 92.125 490.438C98.494 490.438 104.572 488.605 109.754 485.193C110.711 485.604 111.674 486.002 112.641 486.389C115.609 500.982 128.543 512 144 512H176C191.457 512 204.391 500.982 207.359 486.389C208.342 485.996 209.322 485.59 210.297 485.172C215.422 488.57 221.537 490.438 227.938 490.438C236.484 490.438 244.52 487.107 250.564 481.062L273.189 458.438C284.127 447.5 285.475 430.545 277.232 418.123C277.625 417.211 278.008 416.289 278.383 415.359C292.979 412.395 304 399.459 304 384V352C304 336.543 292.982 323.609 278.389 320.641ZM288 384C288 392.875 280.875 400 272 400H266.875C264.625 407.25 261.75 414.25 258.125 420.875L261.875 424.5C268.125 430.75 268.125 440.875 261.875 447.125L239.25 469.75C236.125 472.875 232.031 474.437 227.938 474.437S219.75 472.875 216.625 469.75L212.875 466.125C206.25 469.75 199.375 472.625 192 474.75V480C192 488.875 184.875 496 176 496H144C135.125 496 128 488.875 128 480V474.75C120.625 472.625 113.75 469.75 107.125 466.125L103.5 469.75C100.375 472.875 96.25 474.438 92.125 474.438S83.875 472.875 80.75 469.75L58.125 447.125C51.875 440.875 51.875 430.75 58.125 424.5L61.875 420.875C58.25 414.25 55.375 407.375 53.25 400H48C39.125 400 32 392.875 32 384V352C32 343.125 39.125 336 48 336H53.25C55.375 328.75 58.25 321.75 61.875 315.125L58.125 311.375C51.875 305.125 51.875 295 58.125 288.75L80.75 266.125C83.875 263 88 261.438 92.125 261.438S100.375 263 103.5 266.125L107.125 269.875C113.75 266.25 120.625 263.375 128 261.25V256C128 247.125 135.125 240 144 240H176C184.875 240 192 247.125 192 256V261.25C199.25 263.375 206.25 266.25 212.875 269.875L216.5 266.125C219.625 263 223.75 261.438 227.875 261.438S236.125 263 239.25 266.125L261.875 288.75C268.125 295 268.125 305.25 261.875 311.5L258.125 315.125C261.75 321.75 264.625 328.625 266.75 336H272C280.875 336 288 343.125 288 352V384ZM560 128H502.375L419.252 24C407.129 8.832 388.764 0 369.346 0H256C238.4 0 224 14.4 224 32V128H80C44.654 128 16 156.654 16 192V248C16 252.418 19.582 256 24 256S32 252.418 32 248V192C32 165.49 53.49 144 80 144H560C586.51 144 608 165.49 608 192V248C608 252.418 611.582 256 616 256S624 252.418 624 248V192C624 156.799 595.201 128 560 128ZM240 128V32C240 23.162 247.164 16 256 16H369.344C383.898 16 397.664 22.619 406.75 33.988L481.893 128H240ZM480 304C444.654 304 416 332.652 416 368C416 403.346 444.654 432 480 432S544 403.346 544 368C544 332.652 515.346 304 480 304ZM480 416C453.533 416 432 394.467 432 368S453.533 320 480 320S528 341.533 528 368S506.467 416 480 416Z"/></svg>
